X:156
T:Reel TS.156
M:C|
L:1/8
Q:1/2=90
S:Thomas Sands’ MS,1810,Lincolnshire
R:reel
O:England;Lincolnshire
Z:vmp.Ruairidh Greig, 2011
K:Bb
dB”tr”B2FB”tr”B2|dBfd Acce|dBFD EGCG|Agfe dB”tr”B2:|
|:bBaB gBfB|dBec Ac”tr”c2|bBaB gBfB|Agfe dB”tr”B2|
bBaB gBfB|dBec Acce|dBFD EGCG|Agfe dB “tr”B2:|]

